dist/icons/svgs/cake-candles-solid.svg

<svg xmlns="http://www.w3.org/2000/svg" width="24" height="24" fill="currentcolor" class="icon-cake-candles-solid" viewBox="0 0 24 24">
  <path d="M6.60938 2.23438C6.6875 2.11719 6.84375 2 7 2C7.15625 2 7.27344 2.11719 7.35156 2.23438L8.32812 3.875C8.48438 4.14844 8.5625 4.42188 8.5625 4.73438V4.8125C8.5625 5.71094 7.85938 6.375 7 6.375C6.10156 6.375 5.4375 5.71094 5.4375 4.8125V4.73438C5.4375 4.42188 5.51562 4.14844 5.63281 3.875L6.60938 2.23438ZM11.6094 2.23438C11.6875 2.11719 11.8438 2 12 2C12.1562 2 12.2734 2.11719 12.3516 2.23438L13.3281 3.875C13.4844 4.14844 13.5625 4.42188 13.5625 4.73438V4.8125C13.5625 5.71094 12.8594 6.375 12 6.375C11.1016 6.375 10.4375 5.71094 10.4375 4.8125V4.73438C10.4375 4.42188 10.5156 4.14844 10.6328 3.875L11.6094 2.23438ZM15.6328 3.875L16.6094 2.23438C16.6875 2.11719 16.8438 2 17 2C17.1562 2 17.2734 2.11719 17.3516 2.23438L18.3281 3.875C18.4844 4.14844 18.5625 4.42188 18.5625 4.73438V4.8125C18.5625 5.71094 17.8594 6.375 17 6.375C16.1016 6.375 15.4375 5.71094 15.4375 4.8125V4.73438C15.4375 4.42188 15.5156 4.14844 15.6328 3.875ZM8.25 8.875V10.75H10.75V8.875C10.75 8.21094 11.2969 7.625 12 7.625C12.6641 7.625 13.25 8.21094 13.25 8.875V10.75H15.75V8.875C15.75 8.21094 16.2969 7.625 17 7.625C17.6641 7.625 18.25 8.21094 18.25 8.875V10.75C19.6172 10.75 20.75 11.8828 20.75 13.25V16.0234C20.3984 16.2578 20.0469 16.375 19.6172 16.375C19.0703 16.375 18.5625 16.1406 18.1328 15.8672C17.8984 15.75 17.7422 15.5938 17.625 15.4766C17.5469 15.4375 17.5078 15.3984 17.4688 15.3594C17.4688 15.3594 17.4297 15.3594 17.4297 15.3203C17.3125 15.2031 17.1562 15.125 16.9609 15.1641C16.8047 15.1641 16.6484 15.2422 16.5312 15.3594C16.4922 15.3594 16.4922 15.3594 16.4922 15.3984C16.4531 15.3984 16.4141 15.4375 16.375 15.5156C16.2578 15.5938 16.1016 15.75 15.9062 15.8672C15.5156 16.1406 15.0078 16.375 14.5 16.375C13.9531 16.375 13.4844 16.1406 13.0547 15.8672C12.8594 15.75 12.7031 15.5938 12.625 15.5156C12.5469 15.4375 12.5078 15.3984 12.4688 15.3984C12.4688 15.3594 12.4688 15.3594 12.4688 15.3594C12.3516 15.2422 12.1562 15.1641 12 15.1641C11.8047 15.1641 11.6484 15.2031 11.5312 15.3594C11.4922 15.3594 11.4922 15.3594 11.4922 15.3984C11.4531 15.3984 11.4141 15.4375 11.375 15.5156C11.2578 15.5938 11.1016 15.75 10.9062 15.8672C10.5156 16.1406 10.0078 16.375 9.5 16.375C8.95312 16.375 8.48438 16.1406 8.05469 15.8672C7.85938 15.75 7.70312 15.5938 7.625 15.5156C7.54688 15.4375 7.50781 15.3984 7.46875 15.3984C7.46875 15.3594 7.46875 15.3594 7.46875 15.3594C7.35156 15.2422 7.19531 15.1641 7 15.1641C6.84375 15.125 6.64844 15.2031 6.53125 15.3203C6.53125 15.3594 6.53125 15.3594 6.49219 15.3594C6.45312 15.3984 6.41406 15.4375 6.375 15.4766C6.25781 15.5938 6.0625 15.75 5.86719 15.8672C5.4375 16.1406 4.89062 16.375 4.34375 16.375C3.95312 16.375 3.5625 16.2578 3.25 16.0234V13.25C3.25 11.8828 4.34375 10.75 5.75 10.75V8.875C5.75 8.21094 6.29688 7.625 7 7.625C7.66406 7.625 8.25 8.21094 8.25 8.875ZM20.75 17.4297V20.75C20.75 21.4531 20.1641 22 19.5 22H4.5C3.79688 22 3.25 21.4531 3.25 20.75V17.4297C3.5625 17.5469 3.95312 17.625 4.34375 17.625C5.24219 17.625 6.02344 17.2734 6.53125 16.9219C6.6875 16.8047 6.84375 16.6875 6.96094 16.6094C7.07812 16.6875 7.19531 16.8047 7.35156 16.9219C7.85938 17.2344 8.60156 17.625 9.5 17.625C10.3594 17.625 11.1016 17.2344 11.6094 16.9219C11.7656 16.8047 11.8828 16.7266 12 16.6094C12.0781 16.7266 12.1953 16.8047 12.3516 16.9219C12.8594 17.2344 13.6016 17.625 14.5 17.625C15.3594 17.625 16.1016 17.2344 16.6094 16.9219C16.7656 16.8047 16.8828 16.6875 17 16.6094C17.1172 16.6875 17.2734 16.8047 17.4297 16.9219C17.9375 17.2734 18.7188 17.625 19.6172 17.625C20.0078 17.625 20.3984 17.5469 20.75 17.4297Z"/>
</svg>

<svg xmlns="http://www.w3.org/2000/svg" width="24" height="24" fill="currentColor" class="icon-cake-candles-solid" viewBox="0 0 24 24">
  <path d="M6.61 2.234C6.686 2.117 6.843 2 7 2s.273.117.352.234l.976 1.641c.156.273.235.547.235.86v.077c0 .899-.704 1.563-1.563 1.563-.898 0-1.562-.664-1.562-1.562v-.079c0-.312.078-.586.195-.859zm5 0c.078-.117.234-.234.39-.234s.273.117.352.234l.976 1.641c.156.273.235.547.235.86v.077c0 .899-.704 1.563-1.563 1.563-.898 0-1.562-.664-1.562-1.562v-.079c0-.312.078-.586.195-.859zm4.023 1.641.976-1.64C16.687 2.116 16.844 2 17 2s.273.117.352.234l.976 1.641c.156.273.235.547.235.86v.077c0 .899-.704 1.563-1.563 1.563-.898 0-1.562-.664-1.562-1.562v-.079c0-.312.078-.586.195-.859m-7.383 5v1.875h2.5V8.875c0-.664.547-1.25 1.25-1.25.664 0 1.25.586 1.25 1.25v1.875h2.5V8.875c0-.664.547-1.25 1.25-1.25.664 0 1.25.586 1.25 1.25v1.875c1.367 0 2.5 1.133 2.5 2.5v2.773a1.95 1.95 0 0 1-1.133.352c-.547 0-1.055-.234-1.484-.508-.235-.117-.39-.273-.508-.39a.5.5 0 0 1-.156-.118s-.04 0-.04-.039a.5.5 0 0 0-.468-.156.63.63 0 0 0-.43.195c-.039 0-.039 0-.039.04q-.058 0-.117.117c-.117.078-.273.234-.469.351-.39.274-.898.508-1.406.508-.547 0-1.016-.234-1.445-.508a2.3 2.3 0 0 1-.43-.351c-.078-.079-.117-.118-.156-.118v-.039a.72.72 0 0 0-.469-.195c-.195 0-.352.04-.469.195-.039 0-.039 0-.039.04q-.058 0-.117.117c-.117.078-.273.234-.469.351-.39.274-.898.508-1.406.508-.547 0-1.016-.234-1.445-.508a2.3 2.3 0 0 1-.43-.351c-.078-.079-.117-.118-.156-.118v-.039A.65.65 0 0 0 7 15.164c-.156-.039-.352.04-.469.156 0 .04 0 .04-.039.04l-.117.117a3 3 0 0 1-.508.39c-.43.274-.976.508-1.523.508-.39 0-.782-.117-1.094-.352V13.25c0-1.367 1.094-2.5 2.5-2.5V8.875c0-.664.547-1.25 1.25-1.25.664 0 1.25.586 1.25 1.25m12.5 8.555v3.32c0 .703-.586 1.25-1.25 1.25h-15c-.703 0-1.25-.547-1.25-1.25v-3.32c.313.117.703.195 1.094.195.898 0 1.68-.352 2.187-.703.157-.117.313-.235.43-.313.117.078.234.196.39.313.508.312 1.25.703 2.149.703.86 0 1.602-.39 2.11-.703.156-.117.273-.195.39-.313.078.118.195.196.352.313.507.312 1.25.703 2.148.703.86 0 1.602-.39 2.11-.703.156-.117.273-.235.39-.313.117.078.273.196.43.313.508.351 1.289.703 2.187.703.39 0 .781-.078 1.133-.195"/>
</svg>
